icon-themes/breeze_svg/cmd/sc_deletemasterpage.svg

<svg viewBox="0 0 16 16" xmlns="http://www.w3.org/2000/svg"><path d="m2 3v7l3 3h3v-1h-2v-3h-3v-5h10v3h1v-4zm7.7128906 5-.7128906.7011719 1.794922 1.7988281-1.794922 1.798828.7128906.701172 1.7871094-1.792969 1.789062 1.792969.710938-.701172-1.794922-1.798828 1.794922-1.7988281-.710938-.7011719-1.789062 1.7929688z" fill="#1d99f3"/></svg>

<svg xmlns="http://www.w3.org/2000/svg" viewBox="0 0 16 16">
 <path 
     style="fill:#1d99f3" 
     d="M 2 3 L 2 10 L 5 13 L 8 13 L 8 12 L 6 12 L 6 9 L 3 9 L 3 4 L 13 4 L 13 7 L 14 7 L 14 3 L 2 3 z M 9.7128906 8 L 9 8.7011719 L 10.794922 10.5 L 9 12.298828 L 9.7128906 13 L 11.5 11.207031 L 13.289062 13 L 14 12.298828 L 12.205078 10.5 L 14 8.7011719 L 13.289062 8 L 11.5 9.7929688 L 9.7128906 8 z "
     />
 </svg>
